icon_installer/data/icons/scalable/actions/show-soundcard-symbolic.svg

<?xml version="1.0" encoding="UTF-8"?>
<svg height="16px" viewBox="0 0 16 16" width="16px" xmlns="http://www.w3.org/2000/svg">
    <path d="m 6 1 v 6.0625 c -0.164062 -0.035156 -0.332031 -0.050781 -0.5 -0.054688 c -1.378906 0.003907 -2.492188 1.117188 -2.492188 2.496094 c -0.003906 1.378906 1.113282 2.496094 2.492188 2.496094 c 1.367188 0 2.480469 -1.101562 2.496094 -2.46875 h 0.003906 v -4.53125 h 3 z m 7 0 c -0.550781 0 -1 0.449219 -1 1 v 13 c 0 0.550781 0.449219 1 1 1 s 1 -0.449219 1 -1 v -2.5 h 1.5 v -2 h -1.5 v -2 h 1.5 v -2 h -1.5 v -3.5 h 1 c 0.550781 0 1 -0.449219 1 -1 s -0.449219 -1 -1 -1 z m -13 3 v 12 h 10 v -2 h 1 v -2 h -3 v 2 h -6 v -8 h 3 v -2 z m 0 0" fill="#222222"/>
</svg>

<svg xmlns="http://www.w3.org/2000/svg" width="16" height="16"><path fill="#222" d="M6 1v6.063a2.684 2.684 0 0 0-.5-.055 2.495 2.495 0 0 0-2.492 2.496A2.49 2.49 0 0 0 5.5 12a2.497 2.497 0 0 0 2.496-2.469H8V5h3zm7 0c-.55 0-1 .45-1 1v13c0 .55.45 1 1 1s1-.45 1-1v-2.5h1.5v-2H14v-2h1.5v-2H14V3h1c.55 0 1-.45 1-1s-.45-1-1-1zM0 4v12h10v-2h1v-2H8v2H2V6h3V4zm0 0"/></svg>
